!!!OTL: Die elfjaehrige Markgraefin.
!!!OTL-incipit: 'Ach muter, gib mir keinen man!
!!!ARE: Europa, Mitteleuropa, Deutschland
!!!YOR: 2, S. 279
!!    1556 gedruckt in Nuernberg
!!!SCT: Q0053
!!!TXL: @@DE
!!!YEM: Copyright 1995, estate of Helmut Schaffrath.
**kern	**text
*ICvox	*
!! Mixed meters:  3/2; 4/2
*M3/2	*
*k[b-]	*
*F:	*
{4f	'Ach
4f	mu-
4g	-ter,
=1	=1
4a	gib
4.cc	mir
8b-	.
4a	.
4g	kei-
4g	-nen
=2	=2
2f	man!
4r}	.
{4f	Jch
4cc	leb
4dd	nit
=3	=3
4ee	len-
4cc	-ger
2ff	denn
2dd	ein
=4	=4
2cc}	jar,
{2f	ich
4cc	leb
4ff	nit
=5	=5
(4.ee	len-
8dd)	.
4cc	.
4dd	-ger
4.cc	denn
8b-	ein
=6	=6
2a	jar,
4r}	.
{4dd	ſo
4.cc	muß
8b-	ich
=7	=7
*M4/2	*
(4a	ſter-
4f)	.
4g	-ben,
(<4.cc	das
8b-	.
4a	.
4g)	.
4g	iſt
=8	=8
2f	war.'
4r}	.
==	==
!!!AGN: Ballade, Braut - Werbung, Hochzeit, Minderjaehrige, Tod
!!!ONB: ESAC (Essen Associative Code) Database: BALLADE
!!!AMT: irregular
!!!AIN: vox
!!!EED: Helmut Schaffrath
!!!EEV: 1.0
!!@@COMMENT:"Forfter 5 (1556) Nr. 3; Satʒ: Jobſt von Brant."
!!@@END:
!!!RDF**kern: <= below
!!!source: Deutsche Volkslieder mit ihren Melodien. Herausgegeben vom Deutschen Volksliedarchiv. Zweiter Band Balladen. Berlin 1939.
!!!page: 279
!!!ENC: Anna Maria Matuszewska
!!!EEV: 2025/02/17
*-	*-
